outputs/icons/content/undo_sharp.svg

<svg xmlns="http://www.w3.org/2000/svg" width="1200" height="1200" fill="none"><g clip-path="url(#a)"><path fill="#000" d="M625 400c-132.5 0-252.5 49.5-345 130L100 350v450h450L369 619c69.5-58 158-94 256-94 177 0 327.5 115.5 380 275l118.5-39C1054 551.5 857.5 400 625 400"/></g><defs><clipPath id="a"><path fill="#fff" d="M0 0h1200v1200H0z"/></clipPath></defs></svg>

<svg width="1200" height="1200" viewBox="0 0 1200 1200" fill="none" xmlns="http://www.w3.org/2000/svg"><g clip-path="url(#clip0_122_128)"><path d="M625 400C492.5 400 372.5 449.5 280 530L100 350V800H550L369 619C438.5 561 527 525 625 525C802 525 952.5 640.5 1005 800L1123.5 761C1054 551.5 857.5 400 625 400Z" fill="#1D1E23"/></g><defs><clipPath id="clip0_122_128"><path width="24" fill="white" d="M0 0H1200V1200H0V0z"/></clipPath></defs></svg>
